X:149
T:Royal Boarding School,The. RH.149
T:5th of December,The. RH.149
R:Reel
S:Rev.R.Harrison’s MS,c1815,Cumbria
N:Lovely little reel. PJH
O:England
A:Temple Sowerby,Cumbria
Z:vmp.Simon Wilson. Review PJH, 2008.
M:C|
L:1/8
Q:1/2=90
K:A
c|Ae/f/ ec AFEA|Ffed dB-Bc|Ae/f/ ec AFEA|\
Ffed cAA:|!
c|eAcA aAfA|eAcA dB-Bc|\
eAcA gAfA|ecBd c(AAB)|!
eAcA aAfA|\
eAcA dB-Bc|A>cec d>faf|ecBd cAA|]

